X:1
T:L'unico figlio
T:Giovanni Animuccia
T:Source : Primo libro delle Laude spirituali a tre voci---Roma---A.Gardano---1583. Editor : André Vierendeels (21/11/17). Notes : Original clefs : C1, C2, F4 Editorial accidentals above the staff "Nella Nativita di Christo nostro Salvatore"
T:L'unico figlio
T:©
T:©
C:Giovanni Animuccia
Z:©
%%score [ 1 2 3 ]
L:1/8
Q:1/4=120
M:4/4
K:C
V:1 treble nm="Soprano 1" snm="S 1"
V:2 treble nm="Soprano 2" snm="S 2"
V:3 bass nm="Bass" snm="B"
V:1
"^1)" G4 G2 A2 | B6 c2 | d2 c2 B2 B2 | A4 A4 :: A4 A2 B2 | c6 c2 | c2 c2 B2 B2 | A4 A4 | B4 B2 A2 | %9
w: L'u- ni- co|fi- glio|del' e- ter- no|Pa- dre|pro- mes- s'ha-|vea gia|dis- co- prir sia|no- i,|pur se ne|
w: O quan- ti|Re- gi'e|quan- ti gran Pro-|fe- ti,|han de- sia|so di|ve- der il gi-|or- no,|che di- scen-|
 G6 G2 | G2 G2 A2 B2 | A8 | G8 |] %13
w: sta- va|ne gl'a- bis- si|suo-|i.|
w: des- se'i|far tra noi so|gior-|no.|
V:2
"^2)""^1)" G4 G2 G2 | G6 G2 | G2 G2 G2 G2 | ^F4 F4 :: F4 F2 G2 | A6 A2 | A2 A2 G2 G2 | ^F4 F4 | %8
w: L'u- ni- co|fi- glio|del' e- ter- no|Pa- dre|pro- mes- s'ha-|vea gia|dis- co- prir sia|no- i,|
w: Hor l'han ve-|du- to|po- ve- ri oa-|sto- ri,|gia- cer nel|fie- no'en-|tro'u- na Ca- pan-|nel- le,|
 G4 G2 F2 | E6 E2 | E2 E2 ^F2 G2- | G2 ^FE F4 | G8 |] %13
w: pur se ne|sta- va|ne gl'a- bis- si|_ _ _ suo-|i.|
w: col buon Gio-|sef- fo'e|Ma- ria Vir gi-|* * * nel-|la.|
V:3
"^3)""^1)""^4)""^5)" G,4 G,2 G,2 | G,6 G,2 | G,2 G,2 G,2 G,2 | D,4 D,4 :: D,4 D,2 E,2 | F,6 F,2 | %6
w: L'u- ni- co|fi- glio|del' e- ter- no|Pa- de|pro- mes- s'ha-|vea gia|
w: Fat- ta'e la|pa- ce'hor|è tra l'huo- mo'e|Di- o,|hor s'è can-|gia- to'il|
w: Non ti par-|tir da|gl'oc- chi no- stri|ma- i,|ch'à te le|lo- di'à|
 F,2 F,2 G,2 G,2 | D,4 D,4 | G,,4 G,,2 G,,2 | C,6 C,2 | C,2 E,2 D,2 G,,2 | D,8 | G,,8 |] %13
w: dis- co- prir sia|no- i,|pur se ne|sta- va|ne gl'a- bis- si|suoi-|i.|
w: no- stro pian- to'in|ri- so,|sei pur ve-|nu- t'o|Re del Pa- ra-|di-|so.|
w: te da- rem gli'ho-|no- ri,|sem- pre can-|tan- do'i|tuoi ce- le- sti'a-|mo-|ri.|

